X:40
T:Bunker Hill
R:reel
Z:Transcribed by Dave Marshall
M:C|
K:Dmix
|:G~E3 D4|EGAB c4|ABAG E~G3|ABcA dBcA|
G~E3 D4|EGAB c4|ABAG E~G3|ABcA d4:|
|:G~c3 e~c3|G~c3 cBAG|A~d3 f~d3|Addc dcAG|
(3EFG AB cAdB|cAdB c2Bc|dBcA B~G3|1 ABcA d2cA:|2 ABcA d2ag
|:f~d3 fdad|fadf a2gf|ge (3eee gebe|gbeg b2ag|
f~d3 dcAB|cAdB c2Bc|dBcA B~G3|1 ABcA d2ag:|2 ABcA d4|
